build/img/70-tablet.svg

<svg width="55" height="43" viewBox="0 0 55 43" fill="none" xmlns="http://www.w3.org/2000/svg">
<path d="M25.876 5.38184L12.8486 42H4.38086L17.4648 7.4209H0.925781V0.765625H25.876V5.38184ZM54.9893 24.9512C54.9893 30.653 53.9508 35.0143 51.874 38.0352C49.8161 41.056 46.8708 42.5664 43.0381 42.5664C39.2432 42.5664 36.3073 41.1032 34.2305 38.1768C32.1725 35.2314 31.1058 31.0212 31.0303 25.5459V17.7578C31.0303 12.0749 32.0592 7.73242 34.1172 4.73047C36.1751 1.70964 39.1299 0.199219 42.9814 0.199219C46.833 0.199219 49.7878 1.69076 51.8457 4.67383C53.9036 7.6569 54.9515 11.9144 54.9893 17.4463V24.9512ZM46.9463 16.5967C46.9463 13.3493 46.6253 10.9137 45.9834 9.29004C45.3415 7.66634 44.3408 6.85449 42.9814 6.85449C40.4326 6.85449 39.111 9.82812 39.0166 15.7754V26.0557C39.0166 29.3786 39.3376 31.8519 39.9795 33.4756C40.6403 35.0993 41.6598 35.9111 43.0381 35.9111C44.3408 35.9111 45.3037 35.1559 45.9268 33.6455C46.5687 32.1162 46.9085 29.7845 46.9463 26.6504V16.5967Z" fill="url(#paint0_linear)"/>
<defs>
<linearGradient id="paint0_linear" x1="-1" y1="2" x2="24.2696" y2="50.5869" gradientUnits="userSpaceOnUse">
<stop stop-color="#D10A42"/>
<stop offset="1" stop-color="#0041CA"/>
</linearGradient>
</defs>
</svg>

<svg width="55" height="43" fill="none" xmlns="http://www.w3.org/2000/svg"><path d="M25.876 5.382L12.849 42H4.38L17.465 7.42H.925V.767h24.951v4.616zm29.113 19.57c0 5.701-1.038 10.062-3.115 13.083-2.058 3.021-5.003 4.531-8.836 4.531-3.795 0-6.73-1.463-8.807-4.39-2.059-2.945-3.125-7.155-3.2-12.63v-7.788c0-5.683 1.028-10.026 3.086-13.028C36.175 1.71 39.13.2 42.981.2c3.852 0 6.807 1.49 8.865 4.474 2.058 2.983 3.106 7.24 3.143 12.772v7.505zm-8.043-8.355c0-3.248-.32-5.683-.963-7.307-.641-1.624-1.642-2.436-3.002-2.436-2.548 0-3.87 2.974-3.964 8.921v10.28c0 3.324.32 5.797.962 7.42.661 1.624 1.68 2.436 3.06 2.436 1.302 0 2.265-.755 2.888-2.266.642-1.529.981-3.86 1.02-6.995V16.597z" fill="url(#paint0_linear)"/><defs><linearGradient id="paint0_linear" x1="-1" y1="2" x2="24.27" y2="50.587" gradientUnits="userSpaceOnUse"><stop stop-color="#D10A42"/><stop offset="1" stop-color="#0041CA"/></linearGradient></defs></svg>
